; generated by PrusaSlicer 2.7.1+win64 on 2024-02-20 at 09:02:43 UTC


;
;

;
;

;
;
; 

; external perimeters extrusion width = 0.45mm
; perimeters extrusion width = 0.45mm
; infill extrusion width = 0.52mm
; solid infill extrusion width = 0.45mm
; top infill extrusion width = 0.40mm
; support material extrusion width = 0.55mm
; first layer extrusion width = 0.50mm

M73 P0 R130

; printing object Shape-Box id:0 copy 0
; stop printing object Shape-Box id:0 copy 0

M190 S60 ; set bed temperature and wait for it to be reached
M104 S220 ; set temperature
;TYPE:Custom
M203 X300.00 Y300.00 Z4.00 E200.00 ;Maximum feedrates (units/s):
M201 X2500.00 Y2500.00 Z40.00 E2000.00 ;Maximum Acceleration (units/s2):
M204 P450.00 R600.00 T1500.00 ;Acceleration (units/s2): P<print_accel> R<retract_accel> T<travel_accel>
M205 B10000.00 S0.00 T0.00 X7.00 Y7.00 Z1.00 E10.00 ;Advanced: B<min_segment_time_us> S<min_feedrate> T<min_travel_feedrate> X<max_x_jerk> Y<max_y_jerk> Z<max_z_jerk> E<max_e_jerk>
M900 K0.00 ;Linear Advance
M500
G04 P1000; dwell
M501

M300 S440 P200
M300 S660 P250
M300 S880 P300

G28 W ; home all without mesh bed level

G80 ; mesh bed leveling

M420 S1 ; Bed Leveling State

M300 P500 S250;Play Tone

G04 P1000; dwell

M300 P500 S250 ;Play Tone

G04 P1000; dwell

M300 P500 S250;Play Tone
M109 S220 ; set temperature and wait for it to be reached
G21 ; set units to millimeters
G90 ; use absolute coordinates
M83 ; use relative distances for extrusion
M900 K0.04 ; Filament gcode



M142 S40 ; set heatbreak target temp
M107
;LAYER_CHANGE
;Z:0.35
;HEIGHT:0.35
;BEFORE_LAYER_CHANGE
G92 E0.0
;0.35


G1 E-3 F2100
G1 Z.35 F720
;AFTER_LAYER_CHANGE
;0.35
G1 X241.749 Y197.178 F12000
G1 Z.35 F720
G1 E3.1 F1500
M204 P600
;TYPE:Skirt/Brim
;WIDTH:0.5
G1 F1200
G1 X244.678 Y194.249 E.26891
G1 X245.579 Y193.875 E.06333
G1 X254.421 Y193.875 E.57401
G1 X255.322 Y194.249 E.06333
G1 X258.251 Y197.178 E.26891
G1 X258.625 Y198.079 E.06333
G1 X258.625 Y301.921 E6.74125
G1 X258.251 Y302.822 E.06333
G1 X255.322 Y305.751 E.26891
G1 X254.421 Y306.125 E.06333
G1 X245.579 Y306.125 E.57401
G1 X244.678 Y305.751 E.06333
G1 X241.749 Y302.822 E.26891
G1 X241.375 Y301.921 E.06333
G1 X241.375 Y198.079 E6.74125
G1 X241.726 Y197.233 E.05946
M204 P1000
G1 X242.049 Y197.478 F12000
M204 P600
G1 F1200
G1 X244.978 Y194.549 E.26891
G1 X245.579 Y194.3 E.04223
G1 X254.421 Y194.3 E.57401
G1 X255.022 Y194.549 E.04223
G1 X257.951 Y197.478 E.26891
G1 X258.2 Y198.079 E.04223
G1 X258.2 Y301.921 E6.74125
G1 X257.951 Y302.522 E.04223
G1 X255.022 Y305.451 E.26891
G1 X254.421 Y305.7 E.04223
G1 X245.579 Y305.7 E.57401
G1 X244.978 Y305.451 E.04223
G1 X242.049 Y302.522 E.26891
G1 X241.8 Y301.921 E.04223
G1 X241.8 Y198.079 E6.74125
G1 X242.026 Y197.533 E.03836
M204 P1000
G1 X242.35 Y197.778 F12000
M204 P600
G1 F1200
G1 X245.278 Y194.85 E.26881
G1 X245.579 Y194.725 E.02116
G1 X254.421 Y194.725 E.57401
G1 X254.722 Y194.85 E.02116
G1 X257.65 Y197.778 E.26881
G1 X257.775 Y198.079 E.02116
G1 X257.775 Y301.921 E6.74125
G1 X257.65 Y302.222 E.02116
G1 X254.722 Y305.15 E.26881
G1 X254.421 Y305.275 E.02116
G1 X245.579 Y305.275 E.57401
G1 X245.278 Y305.15 E.02116
G1 X242.35 Y302.222 E.26881
G1 X242.225 Y301.921 E.02116
G1 X242.225 Y198.079 E6.74125
G1 X242.327 Y197.834 E.01723
M204 P1000
G1 X243.557 Y198.286 F12000
M204 P600
G1 F1200
G1 X243.586 Y198.209 E.00534
G1 X244.08 Y197.432 E.05977
G1 X245.088 Y196.457 E.09104
G1 X245.75 Y196.069 E.04981
G1 X246.405 Y195.824 E.0454
G1 X247.221 Y195.689 E.05369
G1 X252.847 Y195.693 E.36523
G1 X253.713 Y195.86 E.05726
G1 X254.49 Y196.189 E.05478
G1 X255.094 Y196.601 E.04746
G1 X255.805 Y197.294 E.06445
G1 X256.414 Y198.208 E.0713
G1 X256.69 Y198.96 E.052
G1 X256.811 Y199.71 E.04932
G1 X256.811 Y300.29 E6.52948
G1 X256.69 Y301.04 E.04932
M73 P0 R129
G1 X256.414 Y301.791 E.05194
G1 X255.92 Y302.568 E.05977
G1 X254.912 Y303.543 E.09104
G1 X254.25 Y303.931 E.04981
G1 X253.595 Y304.176 E.0454
G1 X252.78 Y304.311 E.05363
G1 X247.201 Y304.311 E.36218
G1 X246.289 Y304.141 E.06023
G1 X245.538 Y303.825 E.05289
G1 X244.835 Y303.34 E.05544
G1 X244.194 Y302.703 E.05867
G1 X243.714 Y302.034 E.05345
G1 X243.376 Y301.266 E.05447
G1 X243.189 Y300.296 E.06413
G1 X243.189 Y199.71 E6.52987
G1 X243.31 Y198.96 E.04932
G1 X243.537 Y198.342 E.04274
M204 P1000
G1 X243.934 Y198.49 F12000
M204 P600
G1 F1200
G1 X243.976 Y198.38 E.00764
G1 X244.424 Y197.684 E.05373
G1 X245.364 Y196.781 E.08462
G1 X245.917 Y196.46 E.04151
G1 X246.498 Y196.239 E.04035
G1 X247.239 Y196.113 E.04879
G1 X252.825 Y196.118 E.36263
G1 X253.607 Y196.272 E.05174
G1 X254.302 Y196.571 E.04912
G1 X254.811 Y196.918 E.03999
G1 X255.493 Y197.583 E.06184
G1 X256.024 Y198.38 E.06217
G1 X256.274 Y199.05 E.04642
G1 X256.386 Y199.727 E.04455
G1 X256.386 Y300.273 E6.52728
G1 X256.274 Y300.95 E.04455
G1 X256.024 Y301.62 E.04642
G1 X255.576 Y302.316 E.05373
G1 X254.636 Y303.219 E.08462
G1 X254.083 Y303.54 E.04151
G1 X253.503 Y303.761 E.04029
G1 X252.762 Y303.886 E.04878
G1 X247.222 Y303.886 E.35965
G1 X246.392 Y303.728 E.05485
G1 X245.726 Y303.444 E.047
G1 X245.094 Y303.003 E.05003
G1 X244.508 Y302.416 E.05385
G1 X244.073 Y301.807 E.04859
G1 X243.775 Y301.119 E.04867
G1 X243.614 Y300.276 E.05572
G1 X243.614 Y199.727 E6.52747
G1 X243.726 Y199.05 E.04455
G1 X243.913 Y198.547 E.03484
M204 P1000
G1 X244.31 Y198.697 F12000
M204 P600
G1 F1200
G1 X244.364 Y198.553 E.00998
G1 X244.765 Y197.937 E.04772
G1 X245.637 Y197.107 E.07815
G1 X246.086 Y196.85 E.03359
G1 X246.592 Y196.654 E.03523
G1 X247.258 Y196.538 E.04389
G1 X252.805 Y196.543 E.3601
G1 X253.462 Y196.672 E.04347
G1 X254.083 Y196.935 E.04378
G1 X254.528 Y197.235 E.03484
G1 X255.18 Y197.871 E.05913
G1 X255.636 Y198.553 E.05326
G1 X255.859 Y199.142 E.04089
G1 X255.962 Y199.746 E.03978
G1 X255.962 Y300.254 E6.52481
G1 X255.859 Y300.858 E.03978
G1 X255.636 Y301.447 E.04089
G1 X255.235 Y302.063 E.04772
G1 X254.363 Y302.893 E.07815
G1 X253.914 Y303.15 E.03359
G1 X253.408 Y303.346 E.03523
G1 X252.744 Y303.462 E.04376
G1 X247.243 Y303.462 E.35712
G1 X246.498 Y303.316 E.04928
G1 X245.915 Y303.063 E.04126
G1 X245.382 Y302.689 E.04227
G1 X244.82 Y302.128 E.05155
G1 X244.454 Y301.617 E.0408
G1 X244.175 Y300.972 E.04562
G1 X244.038 Y300.257 E.04726
G1 X244.038 Y199.746 E6.525
G1 X244.141 Y199.142 E.03978
G1 X244.288 Y198.753 E.027
M204 P1000
G1 X244.684 Y198.905 F12000
M204 P600
G1 F1200
G1 X244.752 Y198.728 E.01231
G1 X245.106 Y198.192 E.0417
G1 X245.873 Y197.462 E.06874
G1 X246.255 Y197.24 E.02868
G1 X246.725 Y197.058 E.03272
G1 X247.275 Y196.963 E.03623
G1 X252.784 Y196.967 E.35764
G1 X253.319 Y197.072 E.03539
G1 X253.866 Y197.301 E.0385
G1 X254.246 Y197.554 E.02964
G1 X254.868 Y198.16 E.05638
G1 X255.248 Y198.729 E.04442
G1 X255.444 Y199.237 E.03535
G1 X255.537 Y199.765 E.0348
G1 X255.537 Y300.235 E6.52234
G1 X255.444 Y300.763 E.0348
M73 P1 R129
G1 X255.248 Y301.272 E.03541
G1 X254.894 Y301.808 E.0417
G1 X254.127 Y302.538 E.06874
G1 X253.745 Y302.76 E.02868
G1 X253.275 Y302.942 E.03272
G1 X252.726 Y303.037 E.03617
G1 X247.264 Y303.037 E.35458
G1 X246.605 Y302.904 E.04364
G1 X246.107 Y302.684 E.03534
G1 X245.669 Y302.376 E.03476
G1 X245.132 Y301.839 E.0493
G1 X244.834 Y301.426 E.03306
G1 X244.574 Y300.825 E.04251
G1 X244.463 Y300.237 E.03885
G1 X244.463 Y199.765 E6.52247
G1 X244.556 Y199.237 E.0348
G1 X244.662 Y198.961 E.01919
M204 P1000
G1 X245.056 Y199.116 F12000
M204 P600
G1 F1200
G1 X245.138 Y198.906 E.01464
G1 X245.445 Y198.449 E.03574
G1 X246.11 Y197.815 E.05965
G1 X246.425 Y197.629 E.02375
G1 X246.859 Y197.462 E.03019
G1 X247.293 Y197.388 E.02858
G1 X252.762 Y197.392 E.35504
G1 X253.213 Y197.484 E.02988
G1 X253.65 Y197.668 E.03078
G1 X253.965 Y197.873 E.0244
G1 X254.555 Y198.449 E.05353
G1 X254.862 Y198.906 E.03574
G1 X255.03 Y199.335 E.02991
G1 X255.112 Y199.784 E.02963
G1 X255.112 Y300.216 E6.51988
G1 X255.03 Y300.665 E.02963
G1 X254.862 Y301.094 E.02991
G1 X254.555 Y301.551 E.03574
G1 X253.89 Y302.185 E.05965
G1 X253.575 Y302.371 E.02375
G1 X253.141 Y302.538 E.03019
G1 X252.708 Y302.612 E.02852
G1 X247.285 Y302.612 E.35205
G1 X246.753 Y302.506 E.03522
G1 X246.331 Y302.322 E.02989
G1 X245.956 Y302.061 E.02966
G1 X245.444 Y301.55 E.04696
G1 X245.213 Y301.233 E.02546
G1 X244.986 Y300.719 E.03648
G1 X244.888 Y300.216 E.03327
G1 X244.888 Y199.784 E6.51988
G1 X244.97 Y199.335 E.02963
G1 X245.034 Y199.172 E.01137
M204 P1000
G1 X245.425 Y199.33 F12000
M204 P600
G1 F1200
G1 X245.524 Y199.086 E.01709
G1 X245.757 Y198.738 E.02719
G1 X246.35 Y198.166 E.05349
G1 X246.596 Y198.019 E.0186
G1 X246.991 Y197.866 E.0275
G1 X247.31 Y197.813 E.02099
G1 X252.74 Y197.817 E.35251
G1 X253.07 Y197.885 E.02187
G1 X253.685 Y198.193 E.04465
G1 X254.243 Y198.738 E.05064
G1 X254.476 Y199.086 E.02719
G1 X254.617 Y199.436 E.0245
G1 X254.687 Y199.805 E.02438
G1 X254.687 Y300.195 E6.51715
G1 X254.617 Y300.564 E.02438
M73 P1 R128
G1 X254.476 Y300.914 E.0245
G1 X254.243 Y301.262 E.02719
G1 X253.65 Y301.834 E.05349
G1 X253.404 Y301.981 E.0186
G1 X253.009 Y302.134 E.0275
G1 X252.691 Y302.187 E.02093
G1 X247.306 Y302.187 E.34959
G1 X246.899 Y302.106 E.02694
G1 X246.552 Y301.958 E.02449
G1 X246.242 Y301.746 E.02438
G1 X245.755 Y301.26 E.04466
G1 X245.59 Y301.036 E.01806
G1 X245.397 Y300.609 E.03042
G1 X245.313 Y300.194 E.02749
G1 X245.313 Y199.805 E6.51708
G1 X245.383 Y199.436 E.02438
G1 X245.403 Y199.385 E.00356
M204 P1000
G1 X245.832 Y199.516 F12000
M204 P600
G1 F1200
G1 X245.907 Y199.269 E.01676
G1 X246.07 Y199.026 E.019
G1 X246.594 Y198.515 E.04751
G1 X247.123 Y198.27 E.03785
G1 X252.716 Y198.242 E.36309
G1 X252.96 Y198.295 E.01621
G1 X253.406 Y198.515 E.03228
G1 X253.93 Y199.026 E.04751
G1 X254.093 Y199.269 E.019
G1 X254.262 Y199.827 E.03785
G1 X254.262 Y300.173 E6.51429
G1 X254.093 Y300.731 E.03785
G1 X253.93 Y300.974 E.019
G1 X253.406 Y301.485 E.04751
G1 X252.877 Y301.73 E.03785
G1 X247.327 Y301.762 E.3603
G1 X246.769 Y301.592 E.03787
G1 X246.527 Y301.431 E.01887
G1 X246.069 Y300.972 E.04209
G1 X245.796 Y300.46 E.03767
G1 X245.738 Y300.173 E.01901
G1 X245.738 Y199.827 E6.51429
G1 X245.815 Y199.573 E.01723
M204 P1000
G1 X246.195 Y199.684 F12000
M204 P600
G1 F1200
G1 X246.384 Y199.313 E.02703
G1 X246.842 Y198.86 E.04182
G1 X247.345 Y198.663 E.03507
G1 X252.691 Y198.667 E.34705
G1 X253.158 Y198.86 E.0328
G1 X253.616 Y199.313 E.04182
G1 X253.805 Y199.684 E.02703
G1 X253.837 Y199.848 E.01085
G1 X253.837 Y300.152 E6.51157
G1 X253.805 Y300.316 E.01085
G1 X253.616 Y300.687 E.02703
G1 X253.158 Y301.14 E.04182
G1 X252.655 Y301.337 E.03507
G1 X247.348 Y301.337 E.34452
G1 X247.184 Y301.305 E.01085
G1 X246.812 Y301.115 E.02712
G1 X246.31 Y300.583 E.04748
G1 X246.163 Y300.152 E.02956
G1 X246.163 Y199.848 E6.51157
G1 X246.184 Y199.743 E.00695
M204 P1000
G1 X246.588 Y199.869 F12000
M204 P600
G1 F1200
G1 X246.7 Y199.598 E.01904
G1 X247.098 Y199.2 E.03654
G1 X247.369 Y199.088 E.01904
G1 X252.672 Y199.096 E.34426
G1 X252.902 Y199.2 E.01639
G1 X253.3 Y199.598 E.03654
G1 X253.412 Y199.869 E.01904
G1 X253.412 Y300.131 E6.50884
G1 X253.3 Y300.402 E.01904
G1 X252.902 Y300.8 E.03654
G1 X252.631 Y300.912 E.01904
G1 X247.369 Y300.912 E.3416
G1 X247.098 Y300.8 E.01904
G1 X246.7 Y300.402 E.03654
G1 X246.588 Y300.131 E.01904
G1 X246.588 Y199.929 E6.50494
M204 P1000
G1 X247.013 Y199.932 F12000
M204 P600
G1 F1200
G1 X247.045 Y199.854 E.00547
G1 X247.432 Y199.513 E.03348
G1 X252.568 Y199.513 E.33342
G1 X252.646 Y199.545 E.00547
G1 X252.987 Y199.932 E.03348
G1 X252.987 Y300.068 E6.50066
G1 X252.955 Y300.146 E.00547
G1 X252.568 Y300.487 E.03348
G1 X247.432 Y300.487 E.33342
G1 X247.354 Y300.455 E.00547
G1 X247.013 Y300.068 E.03348
G1 X247.013 Y199.992 E6.49677
M204 P1000
G1 X247.438 Y200.062 F12000
M204 P600
G1 F1200
G1 X247.562 Y199.938 E.01138
G1 X252.438 Y199.938 E.31654
G1 X252.562 Y200.062 E.01138
G1 X252.562 Y299.938 E6.48378
G1 X252.438 Y300.062 E.01138
M73 P2 R128
G1 X247.562 Y300.062 E.31654
G1 X247.438 Y299.938 E.01138
G1 X247.438 Y200.122 E6.47989
M204 P1000
; printing object Shape-Box id:0 copy 0
G1 E-2.4 F2100
;WIPE_START
G1 F9600
G1 X247.438 Y200.062 E-.01247
G1 X247.562 Y199.938 E-.03644
G1 X250.214 Y199.938 E-.55109
;WIPE_END
G1 Z.55 F720
G1 X251.675 Y299.175 F12000
G1 Z.35 F720
M73 P2 R127
G1 E3.1 F1500
M204 P600
;TYPE:Perimeter
;WIDTH:0.5
G1 F1200
G1 X248.325 Y299.175 E.21748
G1 X248.325 Y200.825 E6.38471
G1 X251.675 Y200.825 E.21748
G1 X251.675 Y202.5 E.10874
G1 X251.675 Y299.115 E6.27208
M204 P1000
G1 X252.1 Y299.6 F12000
M204 P600
;TYPE:External perimeter
G1 F1200
G1 X247.9 Y299.6 E.27266
G1 X247.9 Y200.4 E6.43989
G1 X252.1 Y200.4 E.27266
G1 X252.1 Y202.5 E.13633
G1 X252.1 Y299.54 E6.29967
M204 P1000
G1 X251.293 Y298.55 F12000
M204 P600
;TYPE:Solid infill
;WIDTH:0.5
G1 F1200
G1 X251.113 Y298.371 E.01648
G1 X250.813 Y298.672 E.02759
G1 X250.934 Y298.793 E.01111
M204 P1000
G1 X250.333 Y298.793 F12000
M204 P600
G1 F1200
G1 X249.912 Y298.371 E.0387
G1 X249.611 Y298.672 E.02763
G1 X249.732 Y298.793 E.01111
M204 P1000
G1 X248.889 Y298.793 F12000
M204 P600
G1 F1200
G1 X249.01 Y298.672 E.01111
G1 X248.71 Y298.371 E.02759
G1 X249.01 Y298.071 E.02754
G1 X249.311 Y298.371 E.02759
G1 X249.611 Y298.071 E.02754
G1 X249.01 Y297.47 E.05518
G1 X248.707 Y297.768 E.02759
M204 P1000
G1 X248.707 Y297.172 F12000
M204 P600
G1 F1200
G1 X249.01 Y296.869 E.02782
G1 X249.311 Y297.169 E.02759
G1 X249.611 Y296.869 E.02754
G1 X249.311 Y296.569 E.02754
G1 X249.912 Y295.968 E.05518
G1 X250.212 Y296.268 E.02754
G1 X249.912 Y296.569 E.02759
G1 X250.212 Y296.869 E.02754
G1 X250.513 Y296.569 E.02759
G1 X250.813 Y296.869 E.02754
G1 X250.212 Y297.47 E.05518
G1 X249.912 Y297.169 E.02759
G1 X249.611 Y297.47 E.02763
G1 X250.513 Y298.371 E.08277
G1 X250.813 Y298.071 E.02754
G1 X250.513 Y297.77 E.02759
G1 X251.113 Y297.169 E.05513
G1 X251.293 Y297.349 E.01653
M204 P1000
G1 X251.293 Y297.591 F12000
M204 P600
G1 F1200
G1 X251.113 Y297.77 E.01648
G1 X251.293 Y297.95 E.01653
M204 P1000
G1 E-2.4 F2100
;WIPE_START
G1 F9600
G1 X251.113 Y297.77 E-.0529
G1 X251.293 Y297.591 E-.05275
;WIPE_END
G1 E-.49435 F2100
G1 Z.55 F720
G1 X251.293 Y296.389 F12000
G1 Z.35 F720
G1 E3.1 F1500
M204 P600
G1 F1200
G1 X251.113 Y296.569 E.01653
G1 X250.813 Y296.268 E.02759
G1 X251.113 Y295.968 E.02754
G1 X250.813 Y295.667 E.02759
G1 X250.513 Y295.968 E.02759
G1 X250.212 Y295.667 E.02763
G1 X250.813 Y295.066 E.05518
G1 X251.113 Y295.367 E.02759
G1 X251.293 Y295.188 E.01648
M204 P1000
G1 X251.293 Y294.945 F12000
M204 P600
G1 F1200
G1 X251.113 Y294.766 E.01648
G1 X251.293 Y294.587 E.01648
M204 P1000
G1 E-2.4 F2100
;WIPE_START
G1 F9600
G1 X251.113 Y294.766 E-.05275
G1 X251.293 Y294.945 E-.05275
;WIPE_END
G1 E-.4945 F2100
G1 Z.55 F720
G1 X251.293 Y292.542 F12000
G1 Z.35 F720
G1 E3.1 F1500
M204 P600
G1 F1200
G1 X251.113 Y292.362 E.01653
G1 X250.813 Y292.663 E.02759
G1 X251.113 Y292.963 E.02754
G1 X250.813 Y293.264 E.02759
G1 X250.513 Y292.963 E.02759
G1 X250.212 Y293.264 E.02763
G1 X250.813 Y293.865 E.05518
G1 X251.113 Y293.564 E.02759
G1 X251.293 Y293.743 E.01648
M204 P1000
G1 X251.293 Y293.986 F12000
M204 P600
G1 F1200
G1 X250.813 Y294.465 E.04402
G1 X250.513 Y294.165 E.02754
G1 X250.212 Y294.465 E.02759
G1 X250.513 Y294.766 E.02763
G1 X249.912 Y295.367 E.05518
G1 X249.611 Y295.066 E.02763
G1 X249.912 Y294.766 E.02759
G1 X249.611 Y294.465 E.02763
G1 X249.311 Y294.766 E.02759
G1 X249.01 Y294.465 E.02763
G1 X249.611 Y293.865 E.05513
G1 X249.912 Y294.165 E.02759
G1 X250.212 Y293.865 E.02754
G1 X249.311 Y292.963 E.08277
G1 X249.01 Y293.264 E.02763
G1 X249.311 Y293.564 E.02759
G1 X248.707 Y294.162 E.05518
M204 P1000
G1 X248.707 Y293.567 F12000
M204 P600
G1 F1200
G1 X248.707 Y293.561 E.00039
M204 P1000
G1 X248.707 Y292.961 F12000
M204 P600
G1 F1200
G1 X249.01 Y292.663 E.02759
G1 X248.71 Y292.362 E.02759
G1 X249.311 Y291.761 E.05518
G1 X249.611 Y292.062 E.02759
G1 X249.311 Y292.362 E.02754
G1 X249.912 Y292.963 E.05518
G1 X250.212 Y292.663 E.02754
G1 X249.912 Y292.362 E.02759
G1 X250.212 Y292.062 E.02754
G1 X250.513 Y292.362 E.02759
G1 X250.813 Y292.062 E.02754
G1 X250.212 Y291.461 E.05518
G1 X249.912 Y291.761 E.02754
G1 X249.611 Y291.461 E.02759
G1 X250.212 Y290.86 E.05518
